<?xml version="1.0" encoding="UTF-8"?>
<map version="1.10" tiledversion="1.11.2" orientation="orthogonal" renderorder="right-down" width="30" height="20" tilewidth="16" tileheight="16" infinite="0" nextlayerid="5" nextobjectid="15">
 <editorsettings>
  <export target="Level1.tmj" format="json"/>
 </editorsettings>
 <tileset firstgid="1" source="Terrain.tsx"/>
 <tileset firstgid="243" source="Strawberry.tsx"/>
 <tileset firstgid="311" name="TesterSet" tilewidth="16" tileheight="16" tilecount="242" columns="22">
  <image source="Terrain/Terrain (16x16).png" width="352" height="176"/>
 </tileset>
 <tileset firstgid="553" source="Background.tsx"/>
 <layer id="4" name="Tile Layer 2" width="30" height="20">
  <data encoding="csv">
553,0,0,0,553,0,0,0,553,0,0,0,553,0,0,0,553,0,0,0,553,0,0,0,553,0,0,0,553,0,
0,0,0,0,0,0,0,0,0,0,0,0,0,0,0,0,0,0,0,0,0,0,0,0,0,0,0,0,0,0,
0,0,0,0,0,0,0,0,0,0,0,0,0,0,0,0,0,0,0,0,0,0,0,0,0,0,0,0,0,0,
0,0,0,0,0,0,0,0,0,0,0,0,0,0,0,0,0,0,0,0,0,0,0,0,0,0,0,0,0,0,
553,0,0,0,553,0,0,0,553,0,0,0,553,0,0,0,553,0,0,0,553,0,0,0,553,0,0,0,553,0,
0,0,0,0,0,0,0,0,0,0,0,0,0,0,0,0,0,0,0,0,0,0,0,0,0,0,0,0,0,0,
0,0,0,0,0,0,0,0,0,0,0,0,0,0,0,0,0,0,0,0,0,0,0,0,0,0,0,0,0,0,
0,0,0,0,0,0,0,0,0,0,0,0,0,0,0,0,0,0,0,0,0,0,0,0,0,0,0,0,0,0,
553,0,0,0,553,0,0,0,553,0,0,0,553,0,0,0,553,0,0,0,553,0,0,0,553,0,0,0,553,0,
0,0,0,0,0,0,0,0,0,0,0,0,0,0,0,0,0,0,0,0,0,0,0,0,0,0,0,0,0,0,
0,0,0,0,0,0,0,0,0,0,0,0,0,0,0,0,0,0,0,0,0,0,0,0,0,0,0,0,0,0,
0,0,0,0,0,0,0,0,0,0,0,0,0,0,0,0,0,0,0,0,0,0,0,0,0,0,0,0,0,0,
553,0,0,0,553,0,0,0,553,0,0,0,553,0,0,0,553,0,0,0,553,0,0,0,553,0,0,0,553,0,
0,0,0,0,0,0,0,0,0,0,0,0,0,0,0,0,0,0,0,0,0,0,0,0,0,0,0,0,0,0,
0,0,0,0,0,0,0,0,0,0,0,0,0,0,0,0,0,0,0,0,0,0,0,0,0,0,0,0,0,0,
0,0,0,0,0,0,0,0,0,0,0,0,0,0,0,0,0,0,0,0,0,0,0,0,0,0,0,0,0,0,
553,0,0,0,553,0,0,0,553,0,0,0,553,0,0,0,553,0,0,0,553,0,0,0,553,0,0,0,553,0,
0,0,0,0,0,0,0,0,0,0,0,0,0,0,0,0,0,0,0,0,0,0,0,0,0,0,0,0,0,0,
0,0,0,0,0,0,0,0,0,0,0,0,0,0,0,0,0,0,0,0,0,0,0,0,0,0,0,0,0,0,
0,0,0,0,0,0,0,0,0,0,0,0,0,0,0,0,0,0,0,0,0,0,0,0,0,0,0,0,0,0
</data>
 </layer>
 <layer id="1" name="Tile Layer 1" width="30" height="20">
  <data encoding="csv">
0,0,0,0,0,0,0,0,0,0,0,0,0,0,0,0,0,0,0,0,0,0,0,0,0,0,0,0,0,0,
0,0,0,0,0,0,0,0,0,0,0,0,0,0,0,0,0,0,0,0,0,0,0,0,0,0,0,0,0,0,
0,0,0,0,0,0,0,0,0,0,0,0,0,0,0,0,0,0,0,0,0,0,0,0,0,0,0,0,0,0,
0,0,0,0,0,0,0,0,0,0,0,0,0,0,0,0,0,0,0,0,0,0,0,0,0,0,0,0,0,0,
0,0,0,0,0,0,0,0,0,0,0,0,0,0,0,0,0,0,0,0,0,0,0,0,0,0,0,0,0,0,
0,0,0,0,0,0,0,0,0,0,0,0,0,0,0,0,0,0,0,0,0,0,0,0,0,0,0,0,0,0,
0,0,0,0,0,0,0,0,0,0,0,0,0,0,0,0,0,0,0,0,0,0,0,0,0,0,0,0,0,0,
0,0,0,0,0,0,0,0,0,0,0,0,0,0,0,0,0,0,0,7,8,8,9,0,0,0,0,0,0,0,
0,0,0,0,0,0,0,0,0,0,0,0,0,0,0,0,0,0,0,29,30,30,31,0,0,0,0,0,0,0,
0,0,0,0,0,0,0,0,0,0,0,0,0,7,8,9,0,0,0,51,52,52,53,0,0,0,0,0,0,0,
0,0,0,0,0,0,0,0,0,0,0,0,0,29,30,31,0,0,0,0,0,0,0,0,0,7,8,9,0,0,
0,0,0,0,0,7,8,9,0,0,0,0,0,51,52,53,0,0,0,0,0,0,0,0,0,29,30,31,0,0,
0,0,0,0,0,29,30,31,0,0,0,0,0,0,0,0,0,0,0,0,0,0,0,0,0,51,52,53,0,0,
0,0,0,0,0,51,52,53,0,0,0,0,0,0,0,0,0,0,0,0,0,7,8,9,0,0,0,0,0,0,
0,0,0,0,0,0,0,0,0,0,0,0,0,0,0,0,0,0,0,0,0,29,30,31,0,0,0,0,0,0,
0,0,0,0,0,0,0,0,0,0,0,0,0,0,0,0,0,0,0,0,0,51,52,53,0,0,0,0,0,0,
0,0,0,0,0,0,0,0,0,0,0,0,0,0,0,0,0,0,0,0,0,0,0,0,0,0,0,0,0,0,
7,8,8,8,8,8,8,8,8,8,8,8,8,8,8,8,8,8,8,8,8,8,8,8,8,8,8,8,8,9,
30,30,30,30,30,30,30,30,30,30,30,30,30,30,30,30,30,30,30,30,30,30,30,30,30,30,30,30,30,31,
29,30,30,30,30,30,30,30,30,30,30,30,30,30,30,30,30,30,30,30,30,30,30,30,30,30,30,30,30,31
</data>
 </layer>
 <objectgroup id="2" name="Object Layer 1">
  <object id="4" name="Player" x="25" y="250">
   <properties>
    <property name="BoxCollider.Angle" type="float" value="0"/>
    <property name="BoxCollider.IsTrigger" type="bool" value="false"/>
    <property name="BoxCollider.Offset X" type="float" value="0"/>
    <property name="BoxCollider.Offset Y" type="float" value="0"/>
    <property name="BoxCollider.Size X" type="float" value="64"/>
    <property name="BoxCollider.Size Y" type="float" value="64"/>
    <property name="RigidBody.BodyType" type="int" value="2"/>
    <property name="Rigidbody.Density" type="float" value="1"/>
    <property name="Rigidbody.Friction" type="float" value="0.5"/>
    <property name="Rigidbody.Gravity" type="bool" value="true"/>
    <property name="Rigidbody.IsTrigger" type="bool" value="false"/>
    <property name="SpriteComponent.Height" type="int" value="64"/>
    <property name="SpriteComponent.SpriteFilePath" value="C:/Game-Engines-25-26-Ionix-2/Client/Ionix 2 - Editor/Assets/Jimmy Demo/Main Characters/Ninja Frog/Fall Frog.png"/>
    <property name="SpriteComponent.Width" type="int" value="64"/>
    <property name="SpriteComponent.ZOrder" type="int" value="1"/>
    <property name="entityId" type="int" value="7"/>
   </properties>
  </object>
  <object id="6" name="BoxColliderObject" x="80" y="175" width="48" height="48">
   <properties>
    <property name="BoxCollider.Angle" type="float" value="0"/>
    <property name="BoxCollider.IsTrigger" type="bool" value="false"/>
    <property name="BoxCollider.Offset X" type="float" value="0"/>
    <property name="BoxCollider.Offset Y" type="float" value="0"/>
    <property name="BoxCollider.Size X" type="float" value="48"/>
    <property name="BoxCollider.Size Y" type="float" value="48"/>
    <property name="EntityID" type="int" value="6"/>
   </properties>
  </object>
  <object id="7" name="BoxColliderObject" x="208" y="144" width="48" height="48">
   <properties>
    <property name="BoxCollider.Angle" type="float" value="0"/>
    <property name="BoxCollider.IsTrigger" type="bool" value="false"/>
    <property name="BoxCollider.Offset X" type="float" value="0"/>
    <property name="BoxCollider.Offset Y" type="float" value="0"/>
    <property name="BoxCollider.Size X" type="float" value="48"/>
    <property name="BoxCollider.Size Y" type="float" value="48"/>
    <property name="EntityID" type="int" value="5"/>
   </properties>
  </object>
  <object id="8" name="BoxColliderObject" x="399.333" y="161.333" width="48" height="48">
   <properties>
    <property name="BoxCollider.Angle" type="float" value="0"/>
    <property name="BoxCollider.IsTrigger" type="bool" value="false"/>
    <property name="BoxCollider.Offset X" type="float" value="0"/>
    <property name="BoxCollider.Offset Y" type="float" value="0"/>
    <property name="BoxCollider.Size X" type="float" value="48"/>
    <property name="BoxCollider.Size Y" type="float" value="48"/>
    <property name="EntityID" type="int" value="4"/>
   </properties>
  </object>
  <object id="10" name="BoxColliderObject" x="334.667" y="209.333" width="48" height="48">
   <properties>
    <property name="BoxCollider.Angle" type="float" value="0"/>
    <property name="BoxCollider.IsTrigger" type="bool" value="false"/>
    <property name="BoxCollider.Offset X" type="float" value="0"/>
    <property name="BoxCollider.Offset Y" type="float" value="0"/>
    <property name="BoxCollider.Size X" type="float" value="48"/>
    <property name="BoxCollider.Size Y" type="float" value="48"/>
    <property name="EntityID" type="int" value="3"/>
   </properties>
  </object>
  <object id="11" name="BoxColliderObject" x="304" y="113.333" width="63.3333" height="48">
   <properties>
    <property name="BoxCollider.Angle" type="float" value="0"/>
    <property name="BoxCollider.IsTrigger" type="bool" value="false"/>
    <property name="BoxCollider.Offset X" type="float" value="0"/>
    <property name="BoxCollider.Offset Y" type="float" value="0"/>
    <property name="BoxCollider.Size X" type="float" value="48"/>
    <property name="BoxCollider.Size Y" type="float" value="48"/>
    <property name="EntityID" type="int" value="2"/>
   </properties>
  </object>
  <object id="12" name="BoxColliderObject" x="1.00002" y="272" width="477.333" height="48">
   <properties>
    <property name="BoxCollider.Angle" type="float" value="0"/>
    <property name="BoxCollider.IsTrigger" type="bool" value="false"/>
    <property name="BoxCollider.Offset X" type="float" value="0"/>
    <property name="BoxCollider.Offset Y" type="float" value="0"/>
    <property name="BoxCollider.Size X" type="float" value="477.3333"/>
    <property name="BoxCollider.Size Y" type="float" value="48"/>
    <property name="EntityID" type="int" value="1"/>
   </properties>
  </object>
  <object id="13" name="AudioPlayer" x="0" y="0">
   <properties>
    <property name="AudioPlayerComponent.AudioFilePath" value="C:/Game-Engines-25-26-Ionix-2/Client/Ionix 2 - Editor/Assets/test.wav"/>
    <property name="AudioPlayerComponent.PlayOnAwake" type="bool" value="true"/>
    <property name="EntityID" type="int" value="8"/>
   </properties>
  </object>
  <object id="14" name="StrawberryPickup" x="320" y="59.3333" width="32" height="32">
   <properties>
    <property name="AnimatorComponent.Columns" type="int" value="17"/>
    <property name="AnimatorComponent.FrameSize" type="int" value="32"/>
    <property name="AnimatorComponent.Height" type="float" value="32"/>
    <property name="AnimatorComponent.Rows" type="int" value="1"/>
    <property name="AnimatorComponent.TextureFilePath" value="C:/Game-Engines-25-26-Ionix-2/Client/Ionix 2 - Editor/Assets/Jimmy Demo/Items/Fruits/Strawberry.png"/>
    <property name="AnimatorComponent.Width" type="float" value="32"/>
    <property name="BoxCollider.Angle" type="float" value="0"/>
    <property name="BoxCollider.IsTrigger" type="bool" value="true"/>
    <property name="BoxCollider.Offset X" type="float" value="0"/>
    <property name="BoxCollider.Offset Y" type="float" value="0"/>
    <property name="BoxCollider.Size X" type="float" value="32"/>
    <property name="BoxCollider.Size Y" type="float" value="32"/>
    <property name="EntityID" type="int" value="9"/>
    <property name="RigidBody.BodyType" type="int" value="2"/>
    <property name="Rigidbody.Density" type="float" value="1"/>
    <property name="Rigidbody.Friction" type="float" value="1"/>
    <property name="Rigidbody.Gravity" type="bool" value="false"/>
    <property name="Rigidbody.IsTrigger" type="bool" value="true"/>
   </properties>
  </object>
 </objectgroup>
</map>
