<?xml version="1.0" encoding="UTF-8"?>
<map version="1.10" tiledversion="1.11.2" orientation="orthogonal" renderorder="right-down" width="30" height="20" tilewidth="16" tileheight="16" infinite="0" nextlayerid="3" nextobjectid="5">
 <tileset firstgid="1" source="Terrain.tsx"/>
 <tileset firstgid="1" source="Strawberry.tsx"/>
 <tileset firstgid="69" source="Terrain.tsx"/>
 <layer id="1" name="Tile Layer 1" width="30" height="20">
  <data encoding="csv">
0,0,0,0,0,0,0,0,0,0,0,0,0,0,0,0,0,0,0,0,0,0,0,0,0,0,0,0,0,0,
0,0,0,0,0,0,0,0,0,0,0,0,0,0,0,0,0,0,0,0,0,0,0,0,0,0,0,0,0,0,
0,0,0,0,0,0,0,0,0,0,0,0,0,0,0,0,0,0,0,0,0,0,0,0,0,0,0,0,0,0,
0,0,0,0,0,0,0,0,0,0,0,0,0,0,0,0,0,0,0,0,0,0,0,0,0,0,0,0,0,0,
0,0,0,0,0,0,0,0,0,0,0,0,0,0,0,0,0,0,0,0,0,0,0,0,0,0,0,0,0,0,
0,0,0,0,0,0,0,0,0,0,0,0,0,0,0,0,0,0,0,0,0,0,0,0,0,0,0,0,0,0,
0,0,0,0,0,0,0,0,0,0,0,0,0,0,0,0,0,0,0,0,0,0,0,0,0,0,0,0,0,0,
0,0,0,0,0,0,0,0,0,0,0,0,0,0,0,0,0,0,0,75,76,76,77,0,0,0,0,0,0,0,
0,0,0,0,0,0,0,0,0,0,0,0,0,0,0,0,0,0,0,97,98,98,99,0,0,0,0,0,0,0,
0,0,0,0,0,0,0,0,0,0,0,0,0,75,76,77,0,0,0,119,120,120,121,0,0,0,0,0,0,0,
0,0,0,0,0,0,0,0,0,0,0,0,0,97,98,99,0,0,0,0,0,0,0,0,0,75,76,77,0,0,
0,0,0,0,0,75,76,77,0,0,0,0,0,119,120,121,0,0,0,0,0,0,0,0,0,97,98,99,0,0,
0,0,0,0,0,97,98,99,0,0,0,0,0,0,0,0,0,0,0,0,0,0,0,0,0,119,120,121,0,0,
0,0,0,0,0,119,120,121,0,0,0,0,0,0,0,0,0,0,0,0,0,75,76,77,0,0,0,0,0,0,
0,0,0,0,0,0,0,0,0,0,0,0,0,0,0,0,0,0,0,0,0,97,98,99,0,0,0,0,0,0,
0,0,0,0,0,0,0,0,0,0,0,0,0,0,0,0,0,0,0,0,0,119,120,121,0,0,0,0,0,0,
0,0,0,0,0,0,0,0,0,0,0,0,0,0,0,0,0,0,0,0,0,0,0,0,0,0,0,0,0,0,
75,76,76,76,76,76,76,76,76,76,76,76,76,76,76,76,76,76,76,76,76,76,76,76,76,76,76,76,76,77,
98,98,98,98,98,98,98,98,98,98,98,98,98,98,98,98,98,98,98,98,98,98,98,98,98,98,98,98,98,99,
97,98,98,98,98,98,98,98,98,98,98,98,98,98,98,98,98,98,98,98,98,98,98,98,98,98,98,98,98,99
</data>
 </layer>
 <objectgroup id="2" name="Object Layer 1">
  <object id="3" name="Strawberry" x="325" y="100">
   <properties>
    <property name="AnimatorComponent.Columns" type="int" value="1"/>
    <property name="AnimatorComponent.FrameSize" type="int" value="16"/>
    <property name="AnimatorComponent.Height" type="float" value="16"/>
    <property name="AnimatorComponent.Rows" type="int" value="17"/>
    <property name="AnimatorComponent.TextureFilePath" value="C:/Users/jimmy/Documents/Game-Engines-25-26-Ionix-2/Client/Assets/Jimmy Demo/Items/Fruits/Strawberry.png"/>
    <property name="AnimatorComponent.Width" type="float" value="16"/>
    <property name="BoxCollider.Angle" type="float" value="0"/>
    <property name="BoxCollider.IsTrigger" type="bool" value="true"/>
    <property name="BoxCollider.Offset X" type="float" value="0"/>
    <property name="BoxCollider.Offset Y" type="float" value="0"/>
    <property name="BoxCollider.Size X" type="float" value="32"/>
    <property name="BoxCollider.Size Y" type="float" value="32"/>
    <property name="entityId" type="int" value="2"/>
   </properties>
  </object>
  <object id="4" name="Player" x="25" y="250">
   <properties>
    <property name="BoxCollider.Angle" type="float" value="0"/>
    <property name="BoxCollider.IsTrigger" type="bool" value="false"/>
    <property name="BoxCollider.Offset X" type="float" value="0"/>
    <property name="BoxCollider.Offset Y" type="float" value="0"/>
    <property name="BoxCollider.Size X" type="float" value="64"/>
    <property name="BoxCollider.Size Y" type="float" value="64"/>
    <property name="RigidBody.BodyType" type="int" value="2"/>
    <property name="Rigidbody.Density" type="float" value="1"/>
    <property name="Rigidbody.Friction" type="float" value="0.5"/>
    <property name="Rigidbody.Gravity" type="bool" value="true"/>
    <property name="Rigidbody.IsTrigger" type="bool" value="false"/>
    <property name="entityId" type="int" value="3"/>
   </properties>
  </object>
 </objectgroup>
</map>
